icons/rocket-24.svg

<svg width="24" height="24" viewBox="0 0 24 24" fill="none" xmlns="http://www.w3.org/2000/svg">
<path d="M17.5 8C17.5 8.82843 16.8284 9.5 16 9.5C15.1716 9.5 14.5 8.82843 14.5 8C14.5 7.17157 15.1716 6.5 16 6.5C16.8284 6.5 17.5 7.17157 17.5 8Z" fill="#24292E"/>
<path fill-rule="evenodd" clip-rule="evenodd" d="M20.3215 0.75C17.581 0.75 14.9439 1.79667 12.9494 3.67607L11.6448 4.90525C11.106 5.41297 10.5916 5.94521 10.1033 6.50012H5.06619C4.45148 6.50012 3.88184 6.82265 3.56558 7.34975L0.856882 11.8643C0.732085 12.0722 0.715585 12.3278 0.812592 12.5501C0.909599 12.7724 1.10814 12.9341 1.34549 12.984L5.91718 13.9465C5.95586 13.9957 5.99866 14.0426 6.04552 14.0866L8.0415 15.9597L9.91345 17.9545C9.95745 18.0014 10.0043 18.0442 10.0536 18.0829L11.0161 22.6546C11.0661 22.892 11.2277 23.0905 11.4501 23.1875C11.6724 23.2845 11.9279 23.268 12.1359 23.1432L16.6504 20.4345C17.1775 20.1183 17.5 19.5486 17.5 18.9339V13.8965C18.0551 13.4079 18.5876 12.8932 19.0955 12.354L20.3236 11.0504C22.2033 9.05515 23.2497 6.41718 23.2489 3.67596L23.2485 2.49949C23.2482 1.53319 22.4648 0.75 21.4985 0.75H20.3215ZM16 15.1122C15.6673 15.3601 15.3281 15.5994 14.9825 15.8298L11.5885 18.0924L12.267 21.3153L15.8786 19.1483C15.9539 19.1031 16 19.0217 16 18.9339V15.1122ZM5.9076 12.4116L8.17097 9.01654C8.40111 8.67134 8.64011 8.33242 8.88772 8.00012H5.06619C4.97838 8.00012 4.897 8.0462 4.85182 8.1215L2.68484 11.7331L5.9076 12.4116ZM13.978 4.76778C15.6943 3.15062 17.9634 2.25 20.3215 2.25H21.4985C21.6366 2.25 21.7485 2.36188 21.7485 2.49993L21.7489 3.6764C21.7496 6.03512 20.8492 8.305 19.2318 10.0219L18.0037 11.3255C16.8469 12.5535 15.5541 13.6459 14.1504 14.5817L10.8624 16.7737L9.11901 14.9159C9.10814 14.9043 9.09691 14.8931 9.08534 14.8822L7.22634 13.1377L9.41904 9.8486C10.3544 8.44554 11.4462 7.15337 12.6735 5.99696L13.978 4.76778Z" fill="#24292E"/>
<path d="M6.49998 21C7.39982 20.1002 7.39985 18.3999 6.50001 17.5C5.60016 16.6002 3.89982 16.6002 2.99998 17.5C1.79119 18.7088 1.55499 21.4013 1.51016 22.2433C1.50266 22.3843 1.61572 22.4973 1.75674 22.4898C2.59877 22.4449 5.29138 22.2086 6.49998 21Z" fill="#24292E"/>
</svg>

<svg xmlns="http://www.w3.org/2000/svg" width="24" height="24" viewBox="0 0 24 24"><path fill-rule="evenodd" d="M20.322.75a10.75 10.75 0 00-7.373 2.926l-1.304 1.23A23.743 23.743 0 0010.103 6.5H5.066a1.75 1.75 0 00-1.5.85l-2.71 4.514a.75.75 0 00.49 1.12l4.571.963c.039.049.082.096.129.14L8.04 15.96l1.872 1.994c.044.047.091.09.14.129l.963 4.572a.75.75 0 001.12.488l4.514-2.709a1.75 1.75 0 00.85-1.5v-5.038a23.741 23.741 0 001.596-1.542l1.228-1.304a10.75 10.75 0 002.925-7.374V2.499A1.75 1.75 0 0021.498.75h-1.177zM16 15.112c-.333.248-.672.487-1.018.718l-3.393 2.262.678 3.223 3.612-2.167a.25.25 0 00.121-.214v-3.822zm-10.092-2.7L8.17 9.017c.23-.346.47-.685.717-1.017H5.066a.25.25 0 00-.214.121l-2.167 3.612 3.223.679zm8.07-7.644a9.25 9.25 0 016.344-2.518h1.177a.25.25 0 01.25.25v1.176a9.25 9.25 0 01-2.517 6.346l-1.228 1.303a22.248 22.248 0 01-3.854 3.257l-3.288 2.192-1.743-1.858a.764.764 0 00-.034-.034l-1.859-1.744 2.193-3.29a22.248 22.248 0 013.255-3.851l1.304-1.23zM17.5 8a1.5 1.5 0 11-3 0 1.5 1.5 0 013 0zm-11 13c.9-.9.9-2.6 0-3.5-.9-.9-2.6-.9-3.5 0-1.209 1.209-1.445 3.901-1.49 4.743a.232.232 0 00.247.247c.842-.045 3.534-.281 4.743-1.49z"/></svg>
